svg/600/sharp/flight_class.svg

<svg xmlns="http://www.w3.org/2000/svg" width="48" height="48" viewBox="0 -960 960 960"><path d="M469.26-447.913v-366.783h262.045v366.783H469.26Zm79.219-79.219h103.042v-207.781H548.479v207.781Zm182.826 282.045h-421.74L185.869-648.652v-166.044h79.218v148.565l102.85 341.26h363.368v79.784Zm-423.74 139.218v-79.218h423.74v79.218h-423.74Zm240.914-629.044h103.042-103.042Z"/></svg>

<svg xmlns="http://www.w3.org/2000/svg" width="48" height="48" viewBox="0 -960 960 960"><path d="M469.26-447.91V-814.7H731.3v366.79H469.26Zm79.22-79.22h103.04v-207.78H548.48v207.78ZM731.3-245.09H309.56L185.87-648.65V-814.7h79.22v148.57l102.85 341.26H731.3v79.78ZM307.56-105.87v-79.22H731.3v79.22H307.56Zm240.92-629.04h103.04-103.04Z"/></svg>
